X: 41918
T: Waiting For Janet
R: jig
M: 6/8
K: Gmajor
|:DEG E2D|DEG A2D|DEG B2B|AGE GED|
DEG A2D|DEG ABD|ABc-c2 B-|1 BGE A2 D:|2 BGE A2A||
|:ABd B2B|ABd A2G|[M:9/8] E2E DEG A2D|[M:6/8] ABd B2B|
ABd F2E|1 [M:9/8]E2E DEG A3:|2 [M:9/8] E2D DEG A2D||

